local/share/icons/dracula-icons-main/scalable/mimetypes/application-vnd.ms-access.svg

<?xml version="1.0" encoding="UTF-8"?>
<svg xmlns="http://www.w3.org/2000/svg" xmlns:xlink="http://www.w3.org/1999/xlink" width="64" height="64" viewBox="0 0 64 64">
<defs>
<filter id="filter-remove-color" x="0%" y="0%" width="100%" height="100%">
<feColorMatrix color-interpolation-filters="sRGB" values="0 0 0 0 1 0 0 0 0 1 0 0 0 0 1 0 0 0 1 0" />
</filter>
<mask id="mask-0">
<g filter="url(#filter-remove-color)">
<rect x="-6.4" y="-6.4" width="76.8" height="76.8" fill="rgb(0%, 0%, 0%)" fill-opacity="0.15"/>
</g>
</mask>
<linearGradient id="linear-pattern-0" gradientUnits="userSpaceOnUse" x1="49.570999" y1="52.714001" x2="51.714001" y2="54.856998" gradientTransform="matrix(0.617345, 0, 0, 0.617345, -18.167916, -19.050025)">
<stop offset="0" stop-color="rgb(0%, 0%, 0%)" stop-opacity="1"/>
<stop offset="1" stop-color="rgb(0%, 0%, 0%)" stop-opacity="0"/>
</linearGradient>
<clipPath id="clip-0">
<rect x="0" y="0" width="17" height="17"/>
</clipPath>
<g id="source-16613" clip-path="url(#clip-0)">
<path fill-rule="evenodd" fill="url(#linear-pattern-0)" d="M 14.816406 12.171875 L 11.113281 15.875 L 13.492188 15.875 C 14.226562 15.875 14.816406 15.285156 14.816406 14.550781 Z M 14.816406 12.171875 "/>
</g>
</defs>
<path fill-rule="nonzero" fill="rgb(78.823529%, 14.117647%, 16.078431%)" fill-opacity="1" d="M 3.441406 1.058594 L 13.492188 1.058594 C 14.222656 1.058594 14.816406 1.652344 14.816406 2.382812 L 14.816406 14.550781 C 14.816406 15.28125 14.222656 15.875 13.492188 15.875 L 3.441406 15.875 C 2.707031 15.875 2.117188 15.28125 2.117188 14.550781 L 2.117188 2.382812 C 2.117188 1.652344 2.707031 1.058594 3.441406 1.058594 Z M 3.441406 1.058594 "/>
<g mask="url(#mask-0)">
<use xlink:href="#source-16613"/>
</g>
<path fill-rule="nonzero" fill="rgb(100%, 100%, 100%)" fill-opacity="1" d="M 8.632812 4.761719 C 7.339844 4.992188 6.050781 5.296875 4.761719 5.523438 C 4.761719 7.484375 4.757812 9.449219 4.761719 11.414062 C 6.042969 11.636719 7.328125 11.9375 8.609375 12.171875 L 8.992188 12.171875 L 8.992188 4.761719 Z M 10.152344 5.789062 C 9.851562 5.789062 9.554688 5.816406 9.257812 5.855469 L 9.257812 6.953125 C 10.089844 7.078125 10.953125 7.050781 11.753906 6.78125 C 11.921875 6.707031 12.136719 6.613281 12.171875 6.410156 C 12.125 6.15625 11.84375 6.0625 11.632812 5.984375 C 11.152344 5.839844 10.652344 5.78125 10.152344 5.789062 Z M 12.171875 6.835938 C 11.855469 7.085938 11.453125 7.171875 11.0625 7.226562 C 10.464844 7.308594 9.855469 7.308594 9.257812 7.230469 L 9.257812 8.375 C 10.007812 8.472656 10.773438 8.464844 11.511719 8.292969 C 11.734375 8.226562 11.988281 8.160156 12.144531 7.972656 C 12.199219 7.597656 12.152344 7.214844 12.171875 6.835938 Z M 7.089844 7.09375 C 7.386719 8.082031 7.667969 9.074219 7.957031 10.0625 C 7.753906 10.046875 7.550781 10.035156 7.347656 10.015625 C 7.292969 9.792969 7.238281 9.574219 7.179688 9.355469 C 6.910156 9.355469 6.636719 9.34375 6.367188 9.332031 C 6.316406 9.539062 6.261719 9.75 6.210938 9.957031 C 6.035156 9.945312 5.863281 9.929688 5.691406 9.921875 C 5.949219 8.992188 6.21875 8.066406 6.472656 7.136719 C 6.679688 7.121094 6.882812 7.109375 7.089844 7.09375 Z M 6.757812 7.621094 C 6.699219 8.039062 6.566406 8.441406 6.476562 8.855469 C 6.671875 8.855469 6.867188 8.859375 7.0625 8.859375 C 6.960938 8.445312 6.839844 8.039062 6.757812 7.621094 Z M 12.171875 8.246094 C 11.859375 8.496094 11.457031 8.582031 11.070312 8.636719 C 10.46875 8.71875 9.859375 8.71875 9.257812 8.644531 L 9.257812 9.785156 C 10.007812 9.882812 10.777344 9.878906 11.515625 9.703125 C 11.742188 9.636719 11.992188 9.570312 12.144531 9.382812 C 12.199219 9.007812 12.152344 8.625 12.171875 8.246094 Z M 12.171875 9.65625 C 11.855469 9.910156 11.453125 9.992188 11.066406 10.050781 C 10.464844 10.128906 9.859375 10.128906 9.257812 10.054688 C 9.257812 10.433594 9.261719 10.8125 9.253906 11.195312 C 9.882812 11.285156 10.527344 11.28125 11.15625 11.1875 C 11.5 11.117188 11.894531 11.066406 12.144531 10.792969 C 12.199219 10.417969 12.152344 10.035156 12.171875 9.65625 Z M 12.171875 9.65625 "/>
</svg>

<svg width="64" height="64" version="1.1" viewBox="0 0 16.933 16.933" xmlns="http://www.w3.org/2000/svg">
 <defs>
  <linearGradient id="a" x1="49.571" x2="51.714" y1="52.714" y2="54.857" gradientTransform="matrix(2.3333,0,0,2.3333,-68.667,-72.001)" gradientUnits="userSpaceOnUse">
   <stop offset="0"/>
   <stop stop-opacity="0" offset="1"/>
  </linearGradient>
 </defs>
 <g transform="scale(.26458)">
  <rect x="8" y="4" width="48" height="56" ry="5" fill="#c92429" style="paint-order:stroke fill markers"/>
  <path d="m56 46-14 14h9c2.77 0 5-2.23 5-5z" fill="url(#a)" fill-rule="evenodd" opacity=".15" stroke-width="8.8191" style="paint-order:stroke fill markers"/>
 </g>
 <path d="m8.6318 4.7624c-1.2902 0.22976-2.5811 0.53459-3.8713 0.76014 0 1.9626-8.5e-4 3.9261 0 5.8896 1.2835 0.22471 2.5676 0.5245 3.8485 0.75847h0.38446v-7.4082zm1.5215 1.0251c-0.29991 0.0029-0.59981 0.02779-0.89515 0.06847v1.0954c0.82989 0.12523 1.6951 0.09973 2.495-0.17014 0.16933-0.07408 0.38355-0.1667 0.41883-0.37219-0.04762-0.25135-0.32974-0.34576-0.54052-0.42426-0.47844-0.14607-0.97833-0.20218-1.4782-0.19727zm2.0179 1.0475c-0.31397 0.25223-0.71884 0.33605-1.1069 0.39338-0.59883 0.07849-1.2074 0.07934-1.8062 0.0035v1.1429c0.74788 0.09613 1.516 0.09183 2.2524-0.08191 0.22577-0.06438 0.47632-0.1315 0.63419-0.31935 0.05644-0.3757 0.0071-0.75931 0.02648-1.1385zm-5.0809 0.25747c0.29544 0.98776 0.57597 1.9809 0.86789 2.9695-0.20372-0.01323-0.40755-0.02825-0.60951-0.04677-0.0538-0.22048-0.11103-0.44094-0.16924-0.66054-0.27075-8.75e-4 -0.54156-0.0098-0.81143-0.023-0.05203 0.20902-0.10498 0.41714-0.15877 0.62527-0.17286-0.01323-0.34478-0.02548-0.51675-0.03695 0.25752-0.92867 0.52557-1.8538 0.78133-2.7825 0.20549-0.01499 0.41012-0.02921 0.61649-0.04509zm-0.33163 0.52838c-0.05909 0.41892-0.19139 0.82191-0.28047 1.2347 0.19402 0.0017 0.38812 0.0026 0.58303 0.0035-0.10054-0.41274-0.22319-0.82011-0.30256-1.2381zm5.4125 0.62527c-0.3122 0.25135-0.71442 0.33515-1.1016 0.39247-0.60059 0.07938-1.2109 0.08112-1.8115 0.0044v1.1438c0.74964 0.09525 1.5204 0.09089 2.2586-0.08462 0.22489-0.06438 0.47533-0.1314 0.62967-0.32013 0.05203-0.3757 0.0072-0.75761 0.02481-1.136zm0 1.411c-0.31397 0.25135-0.71703 0.33603-1.1051 0.39247-0.59971 0.07938-1.2083 0.08112-1.808 0.0044 0 0.38011 0.0027 0.75933-0.0035 1.1394 0.6297 0.09084 1.2726 0.08915 1.9014-7e-3 0.34307-0.06967 0.73909-0.11994 0.98868-0.39157 0.05556-0.3757 8e-3 -0.75942 0.02648-1.1378z" enable-background="new" fill="#fff" stroke-width=".088193"/>
</svg>
